svgs/thin/bicycle.svg

<svg xmlns="http://www.w3.org/2000/svg" viewBox="0 0 640 512"><!-- Font Awesome Pro 6.0.0-alpha2 by @fontawesome - https://fontawesome.com License - https://fontawesome.com/license (Commercial License) --><path d="M512 224C494.727 224 478.305 227.52 463.27 233.721L367.188 36.5C365.844 33.75 363.062 32 360 32H296C291.594 32 288 35.578 288 40S291.594 48 296 48H355L409.566 160H205.648L166.719 99.656C165.25 97.375 162.719 96 160 96H104C99.594 96 96 99.578 96 104S99.594 112 104 112H155.656L191.375 167.365L160.688 228.738C150.191 225.955 139.367 224 128 224C57.307 224 0 281.307 0 352C0 422.691 57.307 480 128 480C193.211 480 246.43 431.053 254.387 368H320C323.031 368 325.812 366.281 327.156 363.578L419.133 179.631L449.102 241.154C410.406 263.17 384 304.293 384 352C384 422.691 441.309 480 512 480S640 422.691 640 352C640 281.307 582.691 224 512 224ZM128 464C66.242 464 16 413.756 16 352C16 290.242 66.242 240 128 240C136.789 240 145.25 241.262 153.461 243.188L96.844 356.422C95.594 358.906 95.75 361.844 97.188 364.203C98.656 366.562 101.219 368 104 368H238.383C230.535 422.137 184.281 464 128 464ZM168.938 248C210.453 264.404 240 304.721 240 352H116.938L168.938 248ZM176.164 233.545L201.445 182.982L310.477 352H256C256 298.371 222.953 252.592 176.164 233.545ZM321.375 339.375L215.973 176H403.062L321.375 339.375ZM512 464C450.242 464 400 413.756 400 352C400 310.689 422.734 274.936 456.102 255.521L504.812 355.5C506.188 358.344 509.031 360 512 360C513.188 360 514.375 359.734 515.5 359.188C519.469 357.25 521.125 352.469 519.188 348.5L470.336 248.227C483.242 243.025 497.258 240 512 240C573.758 240 624 290.242 624 352C624 413.756 573.758 464 512 464Z"/></svg>

<svg xmlns="http://www.w3.org/2000/svg" viewBox="0 0 640 512"><!--! Font Awesome Pro 6.0.0-alpha3 by @fontawesome - https://fontawesome.com License - https://fontawesome.com/license (Commercial License) --><path d="M512 224c-17.27 0-33.7 3.52-48.73 9.721l-96.08-197.2C365.8 33.75 363.1 32 360 32h-64C291.6 32 288 35.58 288 40S291.6 48 296 48h59L409.6 160H205.6L166.7 99.66C165.3 97.38 162.7 96 160 96H104C99.59 96 96 99.58 96 104S99.59 112 104 112h51.66l35.72 55.37L160.7 228.7C150.2 225.1 139.4 224 128 224c-70.69 0-128 57.31-128 128c0 70.69 57.31 128 128 128c65.21 0 118.4-48.95 126.4-112H320c3.031 0 5.812-1.719 7.156-4.422l91.98-183.9l29.97 61.52C410.4 263.2 384 304.3 384 352c0 70.69 57.31 128 128 128s128-57.31 128-128C640 281.3 582.7 224 512 224zM128 464c-61.76 0-112-50.24-112-112c0-61.76 50.24-112 112-112c8.789 0 17.25 1.262 25.46 3.188l-56.62 113.2c-1.25 2.484-1.094 5.422 .3438 7.781C98.66 366.6 101.2 368 104 368h134.4C230.5 422.1 184.3 464 128 464zM168.9 248C210.5 264.4 240 304.7 240 352H116.9L168.9 248zM176.2 233.5L201.4 182.1L310.5 352H256C256 298.4 222.1 252.6 176.2 233.5zM321.4 339.4L215.1 176h187.1L321.4 339.4zM512 464c-61.76 0-112-50.24-112-112c0-41.31 22.73-77.06 56.1-96.48l48.71 99.98C506.2 358.3 509 360 512 360c1.188 0 2.375-.2656 3.5-.8125c3.969-1.938 5.625-6.719 3.688-10.69L470.3 248.2C483.2 243 497.3 240 512 240c61.76 0 112 50.24 112 112C624 413.8 573.8 464 512 464z"/></svg>
